icons/1_Primary/Surfshark.svg

<svg width="1024" height="1024" viewBox="0 0 1024 1024" fill="none" xmlns="http://www.w3.org/2000/svg">
<g clip-path="url(#clip0_2_3585)">
<path d="M512 1024C794.77 1024 1024 794.77 1024 512C1024 229.23 794.77 0 512 0C229.23 0 0 229.23 0 512C0 794.77 229.23 1024 512 1024Z" fill="#9ABEFF"/>
<path d="M706 356.32V356C705.71 351.67 705.41 346.65 705.09 341.43C704.49 331.43 703.84 320.62 703.14 312.43C702.217 307.192 700.879 302.036 699.14 297.01C688.98 274.41 669.08 263.51 648.08 258.3C638.51 256.64 626.75 256.3 614.24 256.03H493.75C416.07 260.21 383.41 305.2 374.65 329.17C340.65 430.91 319.42 562.68 304.13 657.79L303.24 663.31L298.24 708.52C297.92 716.052 298.695 723.59 300.54 730.9C310.08 758.48 338.85 781.71 402.23 758.57C462.1 732.57 532.83 700.19 605.97 663.89C647.61 639.89 708.61 584.69 711.74 514.98C711.22 463.28 709.48 409.07 706 356.32ZM609.71 394.55C609.71 397.451 608.557 400.234 606.506 402.286C604.454 404.337 601.672 405.49 598.77 405.49C581.359 405.49 564.66 412.406 552.349 424.718C540.037 437.03 533.12 453.728 533.12 471.14V511.33C533.12 527.371 529.96 543.256 523.82 558.076C517.68 572.896 508.68 586.362 497.335 597.703C485.99 609.044 472.522 618.039 457.7 624.175C442.877 630.31 426.992 633.465 410.95 633.46C408.134 633.46 405.432 632.341 403.441 630.349C401.449 628.358 400.33 625.656 400.33 622.84V589.59C400.33 588.153 400.613 586.731 401.163 585.403C401.713 584.076 402.518 582.87 403.534 581.854C404.55 580.838 405.756 580.032 407.084 579.483C408.411 578.933 409.833 578.65 411.27 578.65C428.682 578.65 445.38 571.733 457.692 559.421C470.003 547.11 476.92 530.411 476.92 513V472.8C476.923 440.419 489.784 409.365 512.677 386.465C535.57 363.565 566.62 350.693 599 350.68C601.817 350.68 604.518 351.799 606.51 353.79C608.501 355.782 609.62 358.483 609.62 361.3L609.71 394.55Z" fill="white"/>
</g>
<defs>
<clipPath id="clip0_2_3585">
<rect width="1024" height="1024" fill="white"/>
</clipPath>
</defs>
</svg>

<svg xmlns="http://www.w3.org/2000/svg" width="1024" height="1024" fill="none">
   <g clip-path="url(#a)">
      <path fill="#9ABEFF" d="M512 1024c282.77 0 512-229.23 512-512S794.77 0 512 0 0 229.23 0 512s229.23 512 512 512Z"/>
      <path fill="#fff" d="M706 356.32V356c-.29-4.33-.59-9.35-.91-14.57-.6-10-1.25-20.81-1.95-29a100.494 100.494 0 0 0-4-15.42c-10.16-22.6-30.06-33.5-51.06-38.71-9.57-1.66-21.33-2-33.84-2.27H493.75c-77.68 4.18-110.34 49.17-119.1 73.14-34 101.74-55.23 233.51-70.52 328.62l-.89 5.52-5 45.21a77.931 77.931 0 0 0 2.3 22.38c9.54 27.58 38.31 50.81 101.69 27.67 59.87-26 130.6-58.38 203.74-94.68 41.64-24 102.64-79.2 105.77-148.91-.52-51.7-2.26-105.91-5.74-158.66Zm-96.29 38.23a10.943 10.943 0 0 1-10.94 10.94 65.647 65.647 0 0 0-65.65 65.65v40.19a122.132 122.132 0 0 1-122.17 122.13 10.618 10.618 0 0 1-10.62-10.62v-33.25a10.94 10.94 0 0 1 10.94-10.94A65.65 65.65 0 0 0 476.92 513v-40.2A122.13 122.13 0 0 1 599 350.68c2.817 0 5.518 1.119 7.51 3.11a10.623 10.623 0 0 1 3.11 7.51l.09 33.25Z"/>
   </g>
   <defs>
      <clipPath id="a">
         <path fill="#fff" d="M0 0h1024v1024H0z"/>
      </clipPath>
   </defs>
</svg>
